X:70
T:MGYLWDR3- Moggy Lawther on a day
S:from The Beggar's Wedding, 1729
Q:1/4=120
L:1/4
M:C|
K:G
D/|G3/4A/4G/G/ G3/4A/4G/G/|A3/4B/4A/G/ F3/4G/4A3/4A/4|\
B3/4G/4G/G/ G3/4A/4G/G/|B3/4c/4d/c/ B3/4c/4d3/4d/4|\
e3/4d/4c3/4B/4 c3/4B/4A3/4B/4|c3/4B/4A3/4G/4 F3/4G/4A/A/|\
G3/4F/4E3/4D/4 C3/4B,/4A,3/4c/4|B3/4c/4A3/4B/4FG|]

